X: 19008
T: Inspector Smith Of Dumfries
R: reel
M: 4/4
K: Gmajor
|:D2AB cBAF|GA (3Bcd A2AG|FDdB c2cd|edcB A2E2
~F3G ~A4~|defg f2ed|c2cA BAG2|1 E2ED E2FE:|2 E2ED E2D2||
|:dAde f2fg|a2ag f2ed|g2ga gfed|e2ed e2fe
dAde f2fg|fdAB d2 (3def|e2c2 A2e2|d4 dBAF:|

